package/converter/svg/light/book.svg

<svg xmlns="http://www.w3.org/2000/svg" viewBox="0 0 448 512"><!-- Font Awesome Pro 6.0.0-alpha2 by @fontawesome - https://fontawesome.com License - https://fontawesome.com/license (Commercial License) --><path d="M448 368V48C448 21.49 426.51 0 400 0H80C35.817 0 0 35.817 0 80V448C0 483.346 28.654 512 64 512H432C440.844 512 448 504.844 448 496S440.844 480 432 480H416V413.053C434.584 406.426 448 388.832 448 368ZM32 80C32 53.49 53.49 32 80 32H96V384H64C52.291 384 41.451 387.389 32 392.9V80ZM384 480H64C46.359 480 32 465.641 32 448S46.359 416 64 416H384V480ZM400 384H128V32H400C408.828 32 416 39.172 416 48V368C416 376.828 408.828 384 400 384ZM352 128H192C183.156 128 176 135.156 176 144S183.156 160 192 160H352C360.844 160 368 152.844 368 144S360.844 128 352 128ZM352 224H192C183.156 224 176 231.156 176 240S183.156 256 192 256H352C360.844 256 368 248.844 368 240S360.844 224 352 224Z"/></svg>

<svg xmlns="http://www.w3.org/2000/svg" viewBox="0 0 448 512"><!--! Font Awesome Pro 6.6.0 by @fontawesome - https://fontawesome.com License - https://fontawesome.com/license (Commercial License) Copyright 2024 Fonticons, Inc. --><path d="M64 0C28.7 0 0 28.7 0 64L0 448s0 0 0 0c0 35.3 28.7 64 64 64l368 0c8.8 0 16-7.2 16-16s-7.2-16-16-16l-16 0 0-66.7c18.6-6.6 32-24.4 32-45.3l0-320c0-26.5-21.5-48-48-48L64 0zM384 416l0 64L64 480c-17.7 0-32-14.3-32-32s14.3-32 32-32l320 0zM64 384c-11.7 0-22.6 3.1-32 8.6L32 64c0-17.7 14.3-32 32-32l32 0 0 352-32 0zm64 0l0-352 272 0c8.8 0 16 7.2 16 16l0 320c0 8.8-7.2 16-16 16l-272 0zm48-240c0 8.8 7.2 16 16 16l160 0c8.8 0 16-7.2 16-16s-7.2-16-16-16l-160 0c-8.8 0-16 7.2-16 16zm0 96c0 8.8 7.2 16 16 16l160 0c8.8 0 16-7.2 16-16s-7.2-16-16-16l-160 0c-8.8 0-16 7.2-16 16z"/></svg>
